src/pos-icons/tag-multiple-outline.svg

<svg height="24" viewBox="0 0 24 24" width="24" xmlns="http://www.w3.org/2000/svg"><path d="m6.5 10c.8 0 1.5-.7 1.5-1.5s-.7-1.5-1.5-1.5-1.5.7-1.5 1.5.7 1.5 1.5 1.5m2.5-4 7 7-5 5-7-7v-5zm0-2h-5c-1.1 0-2 .9-2 2v5c0 .6.2 1.1.6 1.4l7 7c.3.4.8.6 1.4.6s1.1-.2 1.4-.6l5-5c.4-.4.6-.9.6-1.4 0-.6-.2-1.1-.6-1.4l-7-7c-.3-.4-.8-.6-1.4-.6m4.5 1.7 1-1 6.9 6.9c.4.4.6.9.6 1.4s-.2 1.1-.6 1.4l-5.4 5.4-1-1 5.7-5.8z"/></svg>

<?xml version="1.0" encoding="UTF-8"?><!DOCTYPE svg PUBLIC "-//W3C//DTD SVG 1.1//EN" "http://www.w3.org/Graphics/SVG/1.1/DTD/svg11.dtd"><svg xmlns="http://www.w3.org/2000/svg" xmlns:xlink="http://www.w3.org/1999/xlink" version="1.1" id="mdi-tag-multiple-outline" width="24" height="24" viewBox="0 0 24 24"><path d="M6.5 10C7.3 10 8 9.3 8 8.5S7.3 7 6.5 7 5 7.7 5 8.5 5.7 10 6.5 10M9 6L16 13L11 18L4 11V6H9M9 4H4C2.9 4 2 4.9 2 6V11C2 11.6 2.2 12.1 2.6 12.4L9.6 19.4C9.9 19.8 10.4 20 11 20S12.1 19.8 12.4 19.4L17.4 14.4C17.8 14 18 13.5 18 13C18 12.4 17.8 11.9 17.4 11.6L10.4 4.6C10.1 4.2 9.6 4 9 4M13.5 5.7L14.5 4.7L21.4 11.6C21.8 12 22 12.5 22 13S21.8 14.1 21.4 14.4L16 19.8L15 18.8L20.7 13L13.5 5.7Z" /></svg>
